X: 121
T: Wild Goose Chace
B: 204 Favourite Country Dances
N: Published by Straight & Skillern, London ca.1775
F: http://imslp.org/wiki/204_Favourite_Country_Dances_(Various) p.61 #121
Z: 2014 John Chambers <jc:trillian.mit.edu>
N: The first strain has only 7 bars.
M: C|
L: 1/8
K: F
% - - - - - - - - - - - - - - - - - - - - - - - - -
cB |\
Acfa f2cB | Ac FA G2BA | dB bg afef | g2ga g2cB |\
AF cA fc af | ge c'a ge de | c2 cd c2 :|
|: cB |\
AB cd {f}_e2dc | df Ac B2 dc | =Bd ef ga bf | ef ga g2 BA |\
Ac Fc Bd Gd | =Bd gb fe dc | dB bg ac' eg | f2 ff f2 :|
% - - - - - - - - - - - - - - - - - - - - - - - - -
%%begintext align
%% Cast off 1 Cu. Hands 4 round at Bottom cast up
%% Hands round at top cross over 1 Cu. lead up and
%% cast off Right and Left at top
%%endtext

%%sep 1 1 500
%%sep 1 1 500
